public/assets/img/components/logo-cashier.svg

<svg xmlns="http://www.w3.org/2000/svg" width="360" height="64" viewBox="0 0 360 64">
  <defs>
    <linearGradient id="a" x1="50%" x2="50%" y1="0%" y2="100%">
      <stop stop-color="#A7DA3E" offset="0%"/>
      <stop stop-color="#7ED321" offset="100%"/>
    </linearGradient>
    <linearGradient id="b" x1="50%" x2="50%" y1="0%" y2="100%">
      <stop stop-color="#699B0A" offset="0%"/>
      <stop stop-color="#417505" offset="100%"/>
    </linearGradient>
  </defs>
  <g fill="none" fill-rule="evenodd">
    <path fill="#2E2E2E" d="M117.558594,42.7636719 L128.755859,42.7636719 L128.755859,47 L112.285156,47 L112.285156,21.40625 L117.558594,21.40625 L117.558594,42.7636719 Z M142.466797,47 C142.232421,46.5429665 142.062501,45.9746128 141.957031,45.2949219 C140.726556,46.6660225 139.126963,47.3515625 137.158203,47.3515625 C135.294913,47.3515625 133.750983,46.8125054 132.526367,45.734375 C131.301752,44.6562446 130.689453,43.2968832 130.689453,41.65625 C130.689453,39.6406149 131.436516,38.0937554 132.930664,37.015625 C134.424812,35.9374946 136.58397,35.3925782 139.408203,35.3808594 L141.746094,35.3808594 L141.746094,34.2910156 C141.746094,33.412105 141.52051,32.708987 141.069336,32.1816406 C140.618162,31.6542942 139.906255,31.390625 138.933594,31.390625 C138.078121,31.390625 137.407229,31.5957011 136.920898,32.0058594 C136.434568,32.4160177 136.191406,32.9785121 136.191406,33.6933594 L131.111328,33.6933594 C131.111328,32.5917914 131.451168,31.5722703 132.130859,30.6347656 C132.81055,29.6972609 133.771478,28.9619167 135.013672,28.4287109 C136.255866,27.8955051 137.650383,27.6289062 139.197266,27.6289062 C141.541027,27.6289062 143.40136,28.2177675 144.77832,29.3955078 C146.15528,30.5732481 146.84375,32.228505 146.84375,34.3613281 L146.84375,42.6054688 C146.855469,44.4101653 147.107419,45.775386 147.599609,46.7011719 L147.599609,47 L142.466797,47 Z M138.265625,43.4667969 C139.015629,43.4667969 139.707028,43.2998064 140.339844,42.9658203 C140.972659,42.6318343 141.441405,42.1835966 141.746094,41.6210938 L141.746094,38.3515625 L139.847656,38.3515625 C137.304675,38.3515625 135.951173,39.23046 135.787109,40.9882812 L135.769531,41.2871094 C135.769531,41.919925 135.992185,42.4414042 136.4375,42.8515625 C136.882815,43.2617208 137.492184,43.4667969 138.265625,43.4667969 Z M161.433594,32.7441406 C160.742184,32.6503902 160.132815,32.6035156 159.605469,32.6035156 C157.683584,32.6035156 156.423831,33.2538997 155.826172,34.5546875 L155.826172,47 L150.746094,47 L150.746094,27.9804688 L155.544922,27.9804688 L155.685547,30.2480469 C156.705083,28.5019444 158.117178,27.6289062 159.921875,27.6289062 C160.484378,27.6289062 161.011716,27.7050774 161.503906,27.8574219 L161.433594,32.7441406 Z M174.371094,47 C174.136718,46.5429665 173.966797,45.9746128 173.861328,45.2949219 C172.630853,46.6660225 171.03126,47.3515625 169.0625,47.3515625 C167.199209,47.3515625 165.65528,46.8125054 164.430664,45.734375 C163.206049,44.6562446 162.59375,43.2968832 162.59375,41.65625 C162.59375,39.6406149 163.340813,38.0937554 164.834961,37.015625 C166.329109,35.9374946 168.488267,35.3925782 171.3125,35.3808594 L173.650391,35.3808594 L173.650391,34.2910156 C173.650391,33.412105 173.424807,32.708987 172.973633,32.1816406 C172.522459,31.6542942 171.810552,31.390625 170.837891,31.390625 C169.982418,31.390625 169.311526,31.5957011 168.825195,32.0058594 C168.338865,32.4160177 168.095703,32.9785121 168.095703,33.6933594 L163.015625,33.6933594 C163.015625,32.5917914 163.355465,31.5722703 164.035156,30.6347656 C164.714847,29.6972609 165.675775,28.9619167 166.917969,28.4287109 C168.160162,27.8955051 169.55468,27.6289062 171.101562,27.6289062 C173.445324,27.6289062 175.305657,28.2177675 176.682617,29.3955078 C178.059577,30.5732481 178.748047,32.228505 178.748047,34.3613281 L178.748047,42.6054688 C178.759766,44.4101653 179.011716,45.775386 179.503906,46.7011719 L179.503906,47 L174.371094,47 Z M170.169922,43.4667969 C170.919926,43.4667969 171.611325,43.2998064 172.244141,42.9658203 C172.876956,42.6318343 173.345702,42.1835966 173.650391,41.6210938 L173.650391,38.3515625 L171.751953,38.3515625 C169.208972,38.3515625 167.85547,39.23046 167.691406,40.9882812 L167.673828,41.2871094 C167.673828,41.919925 167.896482,42.4414042 168.341797,42.8515625 C168.787112,43.2617208 169.396481,43.4667969 170.169922,43.4667969 Z M189.505859,40.7949219 L193.039062,27.9804688 L198.347656,27.9804688 L191.931641,47 L187.080078,47 L180.664062,27.9804688 L185.972656,27.9804688 L189.505859,40.7949219 Z M209.105469,47.3515625 C206.316392,47.3515625 204.045907,46.4961023 202.293945,44.7851562 C200.541983,43.0742102 199.666016,40.7949361 199.666016,37.9472656 L199.666016,37.4550781 C199.666016,35.5449123 200.035153,33.8369216 200.773438,32.3310547 C201.511722,30.8251878 202.55761,29.6650431 203.911133,28.8505859 C205.264655,28.0361287 206.808585,27.6289062 208.542969,27.6289062 C211.144544,27.6289062 213.192375,28.4492105 214.686523,30.0898438 C216.180672,31.730477 216.927734,34.0566256 216.927734,37.0683594 L216.927734,39.1425781 L204.816406,39.1425781 C204.98047,40.3847718 205.475582,41.3808556 206.301758,42.1308594 C207.127934,42.8808631 208.173822,43.2558594 209.439453,43.2558594 C211.396494,43.2558594 212.925776,42.5468821 214.027344,41.1289062 L216.523438,43.9238281 C215.761715,45.0019585 214.730475,45.8427704 213.429688,46.4462891 C212.1289,47.0498077 210.687508,47.3515625 209.105469,47.3515625 Z M208.525391,31.7421875 C207.517573,31.7421875 206.700198,32.0820279 206.073242,32.7617188 C205.446286,33.4414096 205.044923,34.4140562 204.869141,35.6796875 L211.935547,35.6796875 L211.935547,35.2753906 C211.912109,34.150385 211.607425,33.2802765 211.021484,32.6650391 C210.435544,32.0498016 209.603521,31.7421875 208.525391,31.7421875 Z M225.171875,47 L220.074219,47 L220.074219,20 L225.171875,20 L225.171875,47 Z M257.515625,39.0195312 C257.222655,41.7148572 256.258797,43.7773366 254.624023,45.2070312 C252.98925,46.6367259 250.812514,47.3515625 248.09375,47.3515625 C246.195303,47.3515625 244.516609,46.8769579 243.057617,45.9277344 C241.598626,44.9785109 240.470707,43.6337978 239.673828,41.8935547 C238.876949,40.1533116 238.472656,38.1640737 238.460938,35.9257812 L238.460938,32.6035156 C238.460938,30.3300668 238.859371,28.3144619 239.65625,26.5566406 C240.453129,24.7988193 241.598625,23.4423876 243.092773,22.4873047 C244.586922,21.5322218 246.306631,21.0546875 248.251953,21.0546875 C250.994154,21.0546875 253.159172,21.795891 254.74707,23.2783203 C256.334969,24.7607496 257.257811,26.8085807 257.515625,29.421875 L255.335938,29.421875 C254.796872,25.074197 252.435568,22.9003906 248.251953,22.9003906 C245.931629,22.9003906 244.083015,23.7675695 242.706055,25.5019531 C241.329095,27.2363368 240.640625,29.6327972 240.640625,32.6914062 L240.640625,35.8203125 C240.640625,38.7734523 241.311517,41.1288975 242.65332,42.8867188 C243.995124,44.64454 245.808582,45.5234375 248.09375,45.5234375 C250.35548,45.5234375 252.060541,44.9814507 253.208984,43.8974609 C254.357428,42.8134711 255.066405,41.1875108 255.335938,39.0195312 L257.515625,39.0195312 Z M274.285156,47 C274.074218,46.4023408 273.939453,45.517584 273.880859,44.3457031 C273.142574,45.3066454 272.202154,46.047849 271.05957,46.5693359 C269.916986,47.0908229 268.707038,47.3515625 267.429688,47.3515625 C265.601553,47.3515625 264.122076,46.841802 262.991211,45.8222656 C261.860346,44.8027293 261.294922,43.5136797 261.294922,41.9550781 C261.294922,40.1035064 262.065422,38.6386773 263.606445,37.5605469 C265.147469,36.4824165 267.294908,35.9433594 270.048828,35.9433594 L273.863281,35.9433594 L273.863281,33.78125 C273.863281,32.4218682 273.44434,31.352543 272.606445,30.5732422 C271.76855,29.7939414 270.546883,29.4042969 268.941406,29.4042969 C267.476555,29.4042969 266.263677,29.7792931 265.302734,30.5292969 C264.341792,31.2793006 263.861328,32.1816354 263.861328,33.2363281 L261.751953,33.21875 C261.751953,31.7070237 262.455071,30.3974665 263.861328,29.2900391 C265.267585,28.1826117 266.996083,27.6289062 269.046875,27.6289062 C271.167979,27.6289062 272.840814,28.1591744 274.06543,29.2197266 C275.290045,30.2802787 275.919922,31.7597561 275.955078,33.6582031 L275.955078,42.6582031 C275.955078,44.4980561 276.148436,45.8749954 276.535156,46.7890625 L276.535156,47 L274.285156,47 Z M267.675781,45.4882812 C269.082038,45.4882812 270.338862,45.1484409 271.446289,44.46875 C272.553716,43.7890591 273.359372,42.8808651 273.863281,41.7441406 L273.863281,37.5605469 L270.101562,37.5605469 C268.003896,37.5839845 266.363287,37.9677697 265.179688,38.7119141 C263.996088,39.4560584 263.404297,40.4785091 263.404297,41.7792969 C263.404297,42.8457085 263.799801,43.7304652 264.59082,44.4335938 C265.38184,45.1367223 266.41015,45.4882812 267.675781,45.4882812 Z M292.953125,42.1660156 C292.953125,41.1230417 292.534184,40.2851594 291.696289,39.6523438 C290.858394,39.0195281 289.595712,38.5244158 287.908203,38.1669922 C286.220695,37.8095685 284.911137,37.3994164 283.979492,36.9365234 C283.047847,36.4736305 282.356448,35.9082065 281.905273,35.2402344 C281.454099,34.5722623 281.228516,33.7636766 281.228516,32.8144531 C281.228516,31.3144456 281.855462,30.0752002 283.109375,29.0966797 C284.363288,28.1181592 285.96874,27.6289062 287.925781,27.6289062 C290.046886,27.6289062 291.749017,28.1533151 293.032227,29.2021484 C294.315436,30.2509818 294.957031,31.6191322 294.957031,33.3066406 L292.847656,33.3066406 C292.847656,32.1933538 292.381841,31.2675818 291.450195,30.5292969 C290.51855,29.7910119 289.343757,29.421875 287.925781,29.421875 C286.542962,29.421875 285.432621,29.7294891 284.594727,30.3447266 C283.756832,30.959964 283.337891,31.7597607 283.337891,32.7441406 C283.337891,33.6933641 283.68652,34.4287083 284.383789,34.9501953 C285.081058,35.4716823 286.35253,35.9492166 288.198242,36.3828125 C290.043955,36.8164084 291.426753,37.2792944 292.34668,37.7714844 C293.266606,38.2636743 293.949217,38.8554653 294.394531,39.546875 C294.839846,40.2382847 295.0625,41.076167 295.0625,42.0605469 C295.0625,43.6660237 294.415046,44.9492139 293.120117,45.9101562 C291.825189,46.8710986 290.134776,47.3515625 288.048828,47.3515625 C285.833973,47.3515625 284.038093,46.815435 282.661133,45.7431641 C281.284173,44.6708931 280.595703,43.3144613 280.595703,41.6738281 L282.705078,41.6738281 C282.78711,42.904303 283.305659,43.8623013 284.260742,44.5478516 C285.215825,45.2334019 286.478508,45.5761719 288.048828,45.5761719 C289.513679,45.5761719 290.697261,45.2539095 291.599609,44.609375 C292.501958,43.9648405 292.953125,43.1503955 292.953125,42.1660156 Z M301.882812,31.1972656 C302.574222,30.0605412 303.458979,29.1816437 304.537109,28.5605469 C305.61524,27.93945 306.792962,27.6289062 308.070312,27.6289062 C310.109385,27.6289062 311.626948,28.2031193 312.623047,29.3515625 C313.619146,30.5000057 314.123047,32.2226448 314.134766,34.5195312 L314.134766,47 L312.042969,47 L312.042969,34.5019531 C312.03125,32.8027259 311.670902,31.5371135 310.961914,30.7050781 C310.252926,29.8730427 309.119148,29.4570312 307.560547,29.4570312 C306.259759,29.4570312 305.108403,29.8642537 304.106445,30.6787109 C303.104487,31.4931681 302.363284,32.59179 301.882812,33.9746094 L301.882812,47 L299.791016,47 L299.791016,20 L301.882812,20 L301.882812,31.1972656 Z M321.904297,47 L319.794922,47 L319.794922,27.9804688 L321.904297,27.9804688 L321.904297,47 Z M319.425781,22.4785156 C319.425781,22.0800761 319.554686,21.7431654 319.8125,21.4677734 C320.070314,21.1923814 320.421873,21.0546875 320.867188,21.0546875 C321.312502,21.0546875 321.666991,21.1923814 321.930664,21.4677734 C322.194337,21.7431654 322.326172,22.0800761 322.326172,22.4785156 C322.326172,22.8769551 322.194337,23.2109362 321.930664,23.4804688 C321.666991,23.7500013 321.312502,23.8847656 320.867188,23.8847656 C320.421873,23.8847656 320.070314,23.7500013 319.8125,23.4804688 C319.554686,23.2109362 319.425781,22.8769551 319.425781,22.4785156 Z M334.982422,47.3515625 C333.365226,47.3515625 331.903327,46.953129 330.59668,46.15625 C329.290033,45.359371 328.273441,44.2490306 327.546875,42.8251953 C326.820309,41.4013601 326.457031,39.8046963 326.457031,38.0351562 L326.457031,37.2792969 C326.457031,35.4511627 326.81152,33.8046948 327.520508,32.3398438 C328.229496,30.8749927 329.216791,29.723637 330.482422,28.8857422 C331.748053,28.0478474 333.119133,27.6289062 334.595703,27.6289062 C336.904308,27.6289062 338.735345,28.4169843 340.088867,29.9931641 C341.44239,31.5693438 342.119141,33.7226426 342.119141,36.453125 L342.119141,37.6308594 L328.548828,37.6308594 L328.548828,38.0351562 C328.548828,40.191417 329.166986,41.9872975 330.40332,43.4228516 C331.639655,44.8584056 333.195303,45.5761719 335.070312,45.5761719 C336.195318,45.5761719 337.188472,45.3710958 338.049805,44.9609375 C338.911137,44.5507792 339.693356,43.8945358 340.396484,42.9921875 L341.714844,43.9941406 C340.167961,46.2324331 337.923843,47.3515625 334.982422,47.3515625 Z M334.595703,29.421875 C333.013664,29.421875 331.680669,30.0019473 330.59668,31.1621094 C329.51269,32.3222714 328.853517,33.8808496 328.619141,35.8378906 L340.027344,35.8378906 L340.027344,35.609375 C339.96875,33.7812409 339.447271,32.2929745 338.462891,31.1445312 C337.478511,29.996088 336.189461,29.421875 334.595703,29.421875 Z M355.003906,29.7734375 C354.558592,29.6914058 354.083987,29.6503906 353.580078,29.6503906 C352.267572,29.6503906 351.157231,30.0165979 350.249023,30.7490234 C349.340816,31.481449 348.693361,32.5449149 348.306641,33.9394531 L348.306641,47 L346.214844,47 L346.214844,27.9804688 L348.271484,27.9804688 L348.306641,31.0039062 C349.419927,28.753895 351.207019,27.6289062 353.667969,27.6289062 C354.253909,27.6289062 354.716795,27.7050774 355.056641,27.8574219 L355.003906,29.7734375 Z"/>
    <g transform="translate(0 1)">
      <rect width="72" height="42" y="20" fill="url(#a)" rx="5"/>
      <circle cx="36" cy="41" r="12" fill="#FFFFFF"/>
      <rect width="72" height="42" x="18" fill="url(#b)" rx="5"/>
      <circle cx="54" cy="21" r="12" fill="#FFFFFF"/>
    </g>
  </g>
</svg>

<svg xmlns="http://www.w3.org/2000/svg" width="360" height="64" viewBox="0 0 360 64"><defs><linearGradient id="a" x1="50%" x2="50%" y1="0%" y2="100%"><stop stop-color="#A7DA3E" offset="0%"/><stop stop-color="#7ED321" offset="100%"/></linearGradient><linearGradient id="b" x1="50%" x2="50%" y1="0%" y2="100%"><stop stop-color="#699B0A" offset="0%"/><stop stop-color="#417505" offset="100%"/></linearGradient></defs><g fill="none" fill-rule="evenodd"><path fill="#2E2E2E" d="M117.56 42.764h11.196V47h-16.47V21.406h5.273v21.358zM142.466 47c-.235-.457-.404-1.025-.51-1.705-1.23 1.37-2.83 2.057-4.8 2.057-1.862 0-3.406-.54-4.63-1.618-1.225-1.078-1.838-2.437-1.838-4.078 0-2.015.747-3.562 2.24-4.64 1.495-1.08 3.654-1.623 6.478-1.635h2.338v-1.09c0-.878-.225-1.58-.677-2.108-.452-.528-1.164-.79-2.136-.79-.856 0-1.527.204-2.013.614-.485.41-.73.973-.73 1.687h-5.08c0-1.1.34-2.12 1.02-3.058.68-.938 1.64-1.673 2.884-2.206 1.242-.534 2.636-.8 4.183-.8 2.344 0 4.204.588 5.58 1.766 1.378 1.177 2.067 2.833 2.067 4.965v8.245c.01 1.805.263 3.17.756 4.096v.3h-5.133zm-4.2-3.533c.75 0 1.44-.167 2.073-.5.633-.335 1.1-.783 1.406-1.346v-3.268h-1.898c-2.543 0-3.897.878-4.06 2.636l-.018.3c0 .632.222 1.153.667 1.564.446.41 1.055.615 1.83.615zm23.167-10.723c-.692-.094-1.3-.14-1.83-.14-1.92 0-3.18.65-3.778 1.95V47h-5.08V27.98h4.8l.14 2.268c1.02-1.746 2.43-2.62 4.236-2.62.562 0 1.09.077 1.582.23l-.07 4.886zM174.37 47c-.233-.457-.403-1.025-.51-1.705-1.23 1.37-2.83 2.057-4.798 2.057-1.863 0-3.407-.54-4.63-1.618-1.226-1.078-1.838-2.437-1.838-4.078 0-2.015.747-3.562 2.24-4.64 1.495-1.08 3.654-1.623 6.478-1.635h2.338v-1.09c0-.878-.225-1.58-.676-2.108-.452-.528-1.163-.79-2.136-.79-.856 0-1.526.204-2.013.614-.486.41-.73.973-.73 1.687h-5.08c0-1.1.34-2.12 1.02-3.058.68-.938 1.64-1.673 2.883-2.206 1.242-.534 2.637-.8 4.184-.8 2.343 0 4.204.588 5.58 1.766 1.378 1.177 2.066 2.833 2.066 4.965v8.245c.012 1.805.264 3.17.756 4.096v.3h-5.133zm-4.2-3.533c.75 0 1.44-.167 2.074-.5.633-.335 1.102-.783 1.406-1.346v-3.268h-1.898c-2.543 0-3.897.878-4.06 2.636l-.018.3c0 .632.222 1.153.668 1.564.445.41 1.054.615 1.828.615zm19.336-2.672l3.533-12.815h5.308L191.932 47h-4.852l-6.416-19.02h5.31l3.532 12.815zm19.6 6.557c-2.79 0-5.06-.856-6.812-2.567-1.752-1.71-2.628-3.99-2.628-6.838v-.492c0-1.91.37-3.618 1.107-5.124.74-1.505 1.785-2.665 3.138-3.48 1.355-.814 2.9-1.22 4.633-1.22 2.602 0 4.65.82 6.144 2.46 1.494 1.64 2.24 3.967 2.24 6.978v2.075h-12.11c.163 1.242.66 2.238 1.485 2.988.826.75 1.872 1.126 3.137 1.126 1.956 0 3.486-.71 4.587-2.127l2.496 2.794c-.76 1.078-1.793 1.92-3.093 2.522-1.3.604-2.742.906-4.325.906zm-.58-15.61c-1.008 0-1.826.34-2.453 1.02-.627.68-1.028 1.652-1.204 2.918h7.066v-.405c-.024-1.125-.33-1.995-.915-2.61-.584-.615-1.416-.923-2.495-.923zM225.17 47h-5.098V20h5.098v27zm32.344-7.98c-.293 2.695-1.257 4.757-2.892 6.187-1.635 1.43-3.81 2.145-6.53 2.145-1.9 0-3.577-.475-5.036-1.424-1.46-.95-2.587-2.294-3.384-4.034-.797-1.74-1.2-3.73-1.213-5.968v-3.322c0-2.274.4-4.29 1.196-6.047.797-1.758 1.943-3.115 3.437-4.07 1.494-.955 3.214-1.432 5.16-1.432 2.74 0 4.906.74 6.494 2.223 1.588 1.483 2.51 3.53 2.77 6.144h-2.18c-.54-4.348-2.9-6.522-7.085-6.522-2.32 0-4.17.868-5.546 2.602-1.377 1.734-2.065 4.13-2.065 7.19v3.128c0 2.953.672 5.31 2.013 7.067 1.342 1.758 3.156 2.636 5.44 2.636 2.262 0 3.968-.542 5.116-1.626 1.147-1.084 1.856-2.71 2.126-4.877h2.18zm16.77 7.98c-.212-.598-.347-1.482-.405-2.654-.737.96-1.678 1.702-2.82 2.223-1.143.52-2.353.782-3.63.782-1.828 0-3.308-.51-4.44-1.53-1.13-1.02-1.695-2.308-1.695-3.867 0-1.85.77-3.316 2.31-4.394 1.542-1.078 3.69-1.617 6.444-1.617h3.813V33.78c0-1.358-.42-2.427-1.257-3.207-.837-.78-2.06-1.17-3.665-1.17-1.463 0-2.676.376-3.637 1.126-.96.75-1.442 1.652-1.442 2.706l-2.108-.017c0-1.513.703-2.823 2.11-3.93 1.406-1.107 3.134-1.66 5.185-1.66 2.12 0 3.794.53 5.018 1.59 1.225 1.06 1.855 2.54 1.89 4.438v9c0 1.84.193 3.217.58 4.13V47h-2.25zm-6.61-1.512c1.406 0 2.663-.34 3.77-1.02 1.108-.68 1.913-1.587 2.417-2.724V37.56h-3.76c-2.1.024-3.74.408-4.923 1.152-1.184.744-1.776 1.767-1.776 3.067 0 1.066.396 1.95 1.187 2.654.792.703 1.82 1.054 3.086 1.054zm25.277-3.322c0-1.043-.42-1.88-1.257-2.514-.838-.632-2.1-1.128-3.788-1.485-1.687-.357-2.997-.768-3.93-1.23-.93-.463-1.622-1.03-2.073-1.697-.45-.668-.676-1.476-.676-2.426 0-1.5.625-2.74 1.88-3.717 1.253-.98 2.86-1.468 4.816-1.468 2.12 0 3.823.523 5.106 1.572 1.283 1.05 1.925 2.417 1.925 4.105h-2.11c0-1.114-.465-2.04-1.397-2.778-.93-.74-2.106-1.108-3.524-1.108-1.383 0-2.493.307-3.33.923-.84.615-1.258 1.415-1.258 2.4 0 .948.35 1.684 1.046 2.205.697.522 1.97 1 3.814 1.433 1.846.433 3.23.896 4.15 1.388.92.494 1.6 1.085 2.047 1.777.445.69.668 1.53.668 2.514 0 1.606-.648 2.89-1.943 3.85s-2.985 1.442-5.07 1.442c-2.216 0-4.012-.537-5.39-1.61-1.376-1.07-2.064-2.428-2.064-4.068h2.11c.08 1.23.6 2.188 1.555 2.874.956.685 2.22 1.028 3.79 1.028 1.464 0 2.647-.322 3.55-.967.902-.645 1.353-1.46 1.353-2.444zm8.93-10.97c.69-1.135 1.576-2.014 2.654-2.635 1.078-.62 2.256-.93 3.533-.93 2.04 0 3.557.573 4.553 1.722.996 1.148 1.5 2.87 1.512 5.168V47h-2.092V34.502c-.012-1.7-.372-2.965-1.08-3.797-.71-.832-1.844-1.248-3.402-1.248-1.3 0-2.452.407-3.454 1.222-1.002.813-1.743 1.912-2.223 3.295V47h-2.092V20h2.093v11.197zM321.903 47h-2.108V27.98h2.11V47zm-2.477-24.52c0-.4.13-.737.387-1.012.257-.276.61-.413 1.054-.413.446 0 .8.137 1.064.413.264.275.396.612.396 1.01 0 .4-.132.733-.395 1.002-.263.27-.617.405-1.063.405-.445 0-.797-.135-1.055-.405-.257-.27-.386-.603-.386-1zm15.556 24.872c-1.617 0-3.08-.4-4.385-1.196-1.307-.797-2.324-1.907-3.05-3.33-.727-1.425-1.09-3.02-1.09-4.79v-.757c0-1.83.355-3.475 1.064-4.94.71-1.465 1.697-2.616 2.962-3.454 1.266-.838 2.637-1.257 4.114-1.257 2.308 0 4.14.787 5.493 2.363 1.352 1.576 2.03 3.73 2.03 6.46v1.178h-13.57v.405c0 2.156.617 3.952 1.853 5.388 1.237 1.435 2.792 2.153 4.667 2.153 1.125 0 2.118-.205 2.98-.615.86-.41 1.643-1.065 2.346-1.968l1.32 1.002c-1.548 2.238-3.792 3.358-6.734 3.358zm-.386-17.93c-1.582 0-2.915.58-4 1.74-1.083 1.16-1.742 2.72-1.977 4.676h11.407v-.23c-.058-1.827-.58-3.315-1.564-4.463-.984-1.15-2.274-1.723-3.867-1.723zm20.408.35c-.445-.08-.92-.122-1.424-.122-1.312 0-2.423.367-3.33 1.1-.91.73-1.557 1.795-1.943 3.19V47h-2.092V27.98h2.056l.037 3.024c1.113-2.25 2.9-3.375 5.36-3.375.587 0 1.05.075 1.39.227l-.053 1.916z"/><g transform="translate(0 1)"><rect width="72" height="42" y="20" fill="url(#a)" rx="5"/><circle cx="36" cy="41" r="12" fill="#FFF"/><rect width="72" height="42" x="18" fill="url(#b)" rx="5"/><circle cx="54" cy="21" r="12" fill="#FFF"/></g></g></svg>
